icon-themes/sifr_svg/cmd/lc_arrowshapes.up-arrow-callout.svg

<svg viewBox="0 0 24 24" xmlns="http://www.w3.org/2000/svg"><g fill="#555753"><path d="m2 22v-11h7v-2h-4v-1.777344l5.875-5.222656h2.25l5.875 5.222656v1.777344h-4v2h7v11zm2-2h16v-7h-7v-6h2.138672l-3.138672-3-3.1386719 3h2.1386719v6h-7z"/><path d="m4 20v-7h7v-6h-2.1386719l3.1386719-3 3.138672 3h-2.138672v6h7v7z" opacity=".35"/></g></svg>

<svg viewBox="0 0 24 24" xmlns="http://www.w3.org/2000/svg">
  <path
     style="fill:#555753"
     d="M 2,22 V 11 H 9 V 9 H 5 V 7.222656 L 10.875,2 h 2.25 L 19,7.222656 V 9 h -4 v 2 h 7 V 22 Z M 4,20 H 20 V 13 H 13 V 7 h 2.138672 L 12,4 8.8613281,7 H 11 v 6 H 4 Z"
     />
  <path
     style="opacity:0.35;fill:#555753"
     d="m 4,20 v -7 h 7 V 7 H 8.8613281 L 12,4 15.138672,7 H 13 v 6 h 7 v 7 z"
     />
</svg>
